X: 3972
T: Blacksmith's Schottische, The
R: barndance
M: 4/4
K: Cmajor
|:"C" G>ce>d c2 c2|"Am" c>eg>f e4|"Dm" d>ef>d "G" B>GA>B|1 "C" c>Bc>A "G7" G4:|2 "C" c2 c2 "C7" c4||
|:"F" a2 f2 a2 f2|"C" g>ec>e g4|"Dm" f>ed>c "G7" B>GA>B|1 "C" c>de>f "C7" g4:|2 "C" c2 c2 c4||

